svg/color/blox.svg

<?xml version="1.0" encoding="UTF-8" ?>
<!DOCTYPE svg PUBLIC "-//W3C//DTD SVG 1.1//EN" "http://www.w3.org/Graphics/SVG/1.1/DTD/svg11.dtd">
<svg width="250pt" height="250pt" viewBox="0 0 250 250" version="1.1" xmlns="http://www.w3.org/2000/svg">
<g id="#ffffffff">
<path fill="#ffffff" opacity="1.00" d=" M 0.00 0.00 L 119.58 0.00 C 99.83 8.90 80.23 18.20 60.70 27.58 C 49.20 32.63 37.93 38.16 26.55 43.47 C 19.77 46.68 12.46 49.22 6.93 54.50 C 16.33 58.87 25.93 62.81 35.60 66.54 C 62.66 78.33 90.10 89.27 117.22 100.94 C 120.77 102.44 124.79 104.57 128.62 102.62 C 157.18 90.51 185.94 78.87 214.40 66.54 C 224.04 62.74 233.68 58.89 243.07 54.50 C 237.62 49.10 230.20 46.73 223.45 43.47 C 212.08 38.16 200.80 32.63 189.30 27.58 C 169.79 18.19 150.20 8.97 130.49 0.00 L 250.00 0.00 L 250.00 74.33 C 226.90 84.33 203.42 93.49 180.49 103.87 C 167.85 108.40 155.74 114.25 143.23 119.10 C 140.71 120.27 137.71 121.01 135.93 123.27 C 135.23 126.52 135.54 129.86 135.48 133.15 C 135.48 140.64 135.52 148.13 135.42 155.61 C 135.49 162.94 135.50 170.27 135.47 177.60 C 135.47 184.63 135.50 191.66 135.45 198.69 C 135.45 205.85 135.50 213.01 135.56 220.17 C 135.45 230.03 135.25 239.89 135.71 249.74 C 144.76 246.51 153.14 241.75 161.90 237.85 C 173.54 232.19 185.43 227.05 196.94 221.11 C 208.00 216.29 218.80 210.90 229.77 205.85 C 232.68 204.49 235.65 203.20 238.35 201.43 C 244.04 198.21 247.72 192.52 250.00 186.54 L 250.00 250.00 L 0.00 250.00 L 0.00 186.44 C 0.75 188.36 1.58 190.25 2.50 192.10 C 4.65 196.54 8.38 200.05 12.75 202.27 C 19.69 205.85 26.89 208.87 33.97 212.15 C 52.30 221.24 70.95 229.66 89.38 238.54 C 97.73 242.20 105.67 246.80 114.30 249.81 C 114.80 237.26 114.46 224.70 114.47 212.15 C 114.46 204.33 114.56 196.51 114.55 188.69 C 114.51 182.77 114.50 176.84 114.55 170.92 C 114.47 163.51 114.52 156.10 114.55 148.70 C 114.49 143.53 114.55 138.36 114.47 133.20 C 114.05 129.11 116.24 122.77 111.10 121.01 C 100.60 116.64 90.20 111.98 79.52 108.05 C 53.22 96.32 26.44 85.71 0.00 74.34 L 0.00 0.00 Z" />
</g>
<g id="#84f9c8ff">
<path fill="#84f9c8" opacity="1.00" d=" M 119.58 0.00 L 130.49 0.00 C 150.20 8.97 169.79 18.19 189.30 27.58 C 184.96 26.52 180.49 26.06 176.02 25.96 C 142.34 26.02 108.66 26.06 74.99 25.95 C 70.19 26.01 65.37 26.44 60.70 27.58 C 80.23 18.20 99.83 8.90 119.58 0.00 Z" />
</g>
<g id="#84f3ccff">
<path fill="#84f3cc" opacity="1.00" d=" M 60.70 27.58 C 65.37 26.44 70.19 26.01 74.99 25.95 C 108.66 26.06 142.34 26.02 176.02 25.96 C 180.49 26.06 184.96 26.52 189.30 27.58 C 200.80 32.63 212.08 38.16 223.45 43.47 C 223.85 44.32 224.25 45.17 224.64 46.03 C 158.21 45.98 91.77 45.99 25.34 46.03 C 25.74 45.17 26.14 44.32 26.55 43.47 C 37.93 38.16 49.20 32.63 60.70 27.58 Z" />
</g>
<g id="#83eed0ff">
<path fill="#83eed0" opacity="1.00" d=" M 6.93 54.50 C 12.46 49.22 19.77 46.68 26.55 43.47 C 26.14 44.32 25.74 45.17 25.34 46.03 C 91.77 45.99 158.21 45.98 224.64 46.03 C 224.25 45.17 223.85 44.32 223.45 43.47 C 230.20 46.73 237.62 49.10 243.07 54.50 C 233.68 58.89 224.04 62.74 214.40 66.54 C 204.94 66.89 195.47 67.11 186.00 66.99 C 145.33 66.99 104.67 66.99 64.00 66.99 C 54.53 67.11 45.06 66.89 35.60 66.54 C 25.93 62.81 16.33 58.87 6.93 54.50 Z" />
</g>
<g id="#83e7d5ff">
<path fill="#83e7d5" opacity="1.00" d=" M 35.60 66.54 C 45.06 66.89 54.53 67.11 64.00 66.99 C 104.67 66.99 145.33 66.99 186.00 66.99 C 195.47 67.11 204.94 66.89 214.40 66.54 C 185.94 78.87 157.18 90.51 128.62 102.62 C 124.79 104.57 120.77 102.44 117.22 100.94 C 90.10 89.27 62.66 78.33 35.60 66.54 Z" />
</g>
<g id="#82e1d9ff">
<path fill="#82e1d9" opacity="1.00" d=" M 0.00 74.34 C 26.44 85.71 53.22 96.32 79.52 108.05 C 74.76 106.89 69.92 105.87 65.00 105.86 C 43.34 106.18 21.67 105.94 0.00 106.00 L 0.00 74.34 Z" />
</g>
<g id="#82e2d8ff">
<path fill="#82e2d8" opacity="1.00" d=" M 180.49 103.87 C 203.42 93.49 226.90 84.33 250.00 74.33 L 250.00 104.01 C 233.00 104.02 216.00 104.04 199.01 103.99 C 192.83 104.18 186.65 104.50 180.49 103.87 Z" />
</g>
<g id="#82dbddff">
<path fill="#82dbdd" opacity="1.00" d=" M 143.23 119.10 C 155.74 114.25 167.85 108.40 180.49 103.87 C 186.65 104.50 192.83 104.18 199.01 103.99 C 216.00 104.04 233.00 104.02 250.00 104.01 L 250.00 126.02 C 218.33 126.01 186.67 126.05 155.00 126.01 C 149.86 126.10 144.60 125.35 139.55 126.55 C 137.57 128.28 136.57 130.82 135.48 133.15 C 135.54 129.86 135.23 126.52 135.93 123.27 C 137.71 121.01 140.71 120.27 143.23 119.10 Z" />
<path fill="#82dbdd" opacity="1.00" d=" M 65.00 105.86 C 69.92 105.87 74.76 106.89 79.52 108.05 C 90.20 111.98 100.60 116.64 111.10 121.01 C 116.24 122.77 114.05 129.11 114.47 133.20 C 113.52 130.90 112.44 128.66 111.41 126.41 C 104.95 125.81 98.47 125.87 92.00 126.01 C 61.33 126.00 30.67 126.02 0.00 126.00 L 0.00 106.00 C 21.67 105.94 43.34 106.18 65.00 105.86 Z" />
</g>
<g id="#81d5e1ff">
<path fill="#81d5e1" opacity="1.00" d=" M 0.00 126.00 C 30.67 126.02 61.33 126.00 92.00 126.01 C 98.47 125.87 104.95 125.81 111.41 126.41 C 112.44 128.66 113.52 130.90 114.47 133.20 C 114.55 138.36 114.49 143.53 114.55 148.70 C 111.64 147.08 108.46 145.77 105.07 145.89 C 70.05 146.12 35.02 145.95 0.00 146.00 L 0.00 126.00 Z" />
</g>
<g id="#81d4e2ff">
<path fill="#81d4e2" opacity="1.00" d=" M 139.55 126.55 C 144.60 125.35 149.86 126.10 155.00 126.01 C 186.67 126.05 218.33 126.01 250.00 126.02 L 250.00 154.02 C 216.67 153.96 183.34 154.04 150.01 153.98 C 145.14 154.11 139.73 152.61 135.42 155.61 C 135.52 148.13 135.48 140.64 135.48 133.15 C 136.57 130.82 137.57 128.28 139.55 126.55 Z" />
</g>
<g id="#81d0e5ff">
<path fill="#81d0e5" opacity="1.00" d=" M 0.00 146.00 C 35.02 145.95 70.05 146.12 105.07 145.89 C 108.46 145.77 111.64 147.08 114.55 148.70 C 114.52 156.10 114.47 163.51 114.55 170.92 C 112.88 169.18 111.56 166.50 108.91 166.19 C 103.63 165.51 98.30 166.06 93.00 166.00 C 62.00 165.99 31.00 165.99 0.00 166.00 L 0.00 146.00 Z" />
</g>
<g id="#81cde7ff">
<path fill="#81cde7" opacity="1.00" d=" M 135.42 155.61 C 139.73 152.61 145.14 154.11 150.01 153.98 C 183.34 154.04 216.67 153.96 250.00 154.02 L 250.00 174.51 C 243.24 176.85 236.00 175.96 229.00 175.98 C 205.00 175.99 181.00 176.00 157.00 175.99 C 149.82 176.03 142.39 175.13 135.47 177.60 C 135.50 170.27 135.49 162.94 135.42 155.61 Z" />
</g>
<g id="#80cae9ff">
<path fill="#80cae9" opacity="1.00" d=" M 0.00 166.00 C 31.00 165.99 62.00 165.99 93.00 166.00 C 98.30 166.06 103.63 165.51 108.91 166.19 C 111.56 166.50 112.88 169.18 114.55 170.92 C 114.50 176.84 114.51 182.77 114.55 188.69 C 111.64 187.08 108.46 185.76 105.07 185.89 C 77.71 186.11 50.35 185.93 23.00 186.00 C 17.10 186.11 11.12 185.34 5.28 186.41 C 2.43 186.64 2.77 190.02 2.50 192.10 C 1.58 190.25 0.75 188.36 0.00 186.44 L 0.00 166.00 Z" />
</g>
<g id="#80c7ebff">
<path fill="#80c7eb" opacity="1.00" d=" M 229.00 175.98 C 236.00 175.96 243.24 176.85 250.00 174.51 L 250.00 186.54 C 247.72 192.52 244.04 198.21 238.35 201.43 C 239.29 199.87 240.15 198.26 241.01 196.66 C 234.05 195.67 227.01 195.90 220.00 196.01 C 194.98 195.93 169.95 196.11 144.93 195.89 C 141.53 195.76 138.36 197.07 135.45 198.69 C 135.50 191.66 135.47 184.63 135.47 177.60 C 142.39 175.13 149.82 176.03 157.00 175.99 C 181.00 176.00 205.00 175.99 229.00 175.98 Z" />
</g>
<g id="#80c4edff">
<path fill="#80c4ed" opacity="1.00" d=" M 2.50 192.10 C 2.77 190.02 2.43 186.64 5.28 186.41 C 11.12 185.34 17.10 186.11 23.00 186.00 C 50.35 185.93 77.71 186.11 105.07 185.89 C 108.46 185.76 111.64 187.08 114.55 188.69 C 114.56 196.51 114.46 204.33 114.47 212.15 C 113.30 210.19 112.16 208.09 110.34 206.65 C 107.35 205.62 104.10 205.92 100.99 205.88 C 77.04 206.23 53.09 205.80 29.14 206.08 C 30.72 208.12 32.27 210.19 33.97 212.15 C 26.89 208.87 19.69 205.85 12.75 202.27 C 8.38 200.05 4.65 196.54 2.50 192.10 Z" />
</g>
<g id="#80c1efff">
<path fill="#80c1ef" opacity="1.00" d=" M 135.45 198.69 C 138.36 197.07 141.53 195.76 144.93 195.89 C 169.95 196.11 194.98 195.93 220.00 196.01 C 227.01 195.90 234.05 195.67 241.01 196.66 C 240.15 198.26 239.29 199.87 238.35 201.43 C 235.65 203.20 232.68 204.49 229.77 205.85 C 218.80 210.90 208.00 216.29 196.94 221.11 C 198.65 219.49 200.25 217.76 201.88 216.06 C 185.92 215.85 169.96 216.10 154.00 215.97 C 148.51 215.81 143.02 215.95 137.55 216.29 C 136.88 217.57 136.20 218.86 135.56 220.17 C 135.50 213.01 135.45 205.85 135.45 198.69 Z" />
</g>
<g id="#7fbdf2ff">
<path fill="#7fbdf2" opacity="1.00" d=" M 29.14 206.08 C 53.09 205.80 77.04 206.23 100.99 205.88 C 104.10 205.92 107.35 205.62 110.34 206.65 C 112.16 208.09 113.30 210.19 114.47 212.15 C 114.46 224.70 114.80 237.26 114.30 249.81 C 105.67 246.80 97.73 242.20 89.38 238.54 C 70.95 229.66 52.30 221.24 33.97 212.15 C 32.27 210.19 30.72 208.12 29.14 206.08 Z" />
</g>
<g id="#7fbbf4ff">
<path fill="#7fbbf4" opacity="1.00" d=" M 137.55 216.29 C 143.02 215.95 148.51 215.81 154.00 215.97 C 169.96 216.10 185.92 215.85 201.88 216.06 C 200.25 217.76 198.65 219.49 196.94 221.11 C 185.43 227.05 173.54 232.19 161.90 237.85 C 153.14 241.75 144.76 246.51 135.71 249.74 C 135.25 239.89 135.45 230.03 135.56 220.17 C 136.20 218.86 136.88 217.57 137.55 216.29 Z" />
</g>
</svg>

<?xml version="1.0" encoding="utf-8"?>
<!-- Generator: Adobe Illustrator 26.0.3, SVG Export Plug-In . SVG Version: 6.00 Build 0)  -->
<svg version="1.1" id="Layer_1" xmlns="http://www.w3.org/2000/svg" xmlns:xlink="http://www.w3.org/1999/xlink" x="0px" y="0px"
	 viewBox="0 0 250 250" style="enable-background:new 0 0 250 250;" xml:space="preserve">
<style type="text/css">
	.st0{fill:#84F9C8;}
	.st1{fill:#84F3CC;}
	.st2{fill:#83EED0;}
	.st3{fill:#83E7D5;}
	.st4{fill:#82E1D9;}
	.st5{fill:#82E2D8;}
	.st6{fill:#82DBDD;}
	.st7{fill:#81D5E1;}
	.st8{fill:#81D4E2;}
	.st9{fill:#81D0E5;}
	.st10{fill:#81CDE7;}
	.st11{fill:#80CAE9;}
	.st12{fill:#80C7EB;}
	.st13{fill:#80C4ED;}
	.st14{fill:#80C1EF;}
	.st15{fill:#7FBDF2;}
	.st16{fill:#7FBBF4;}
</style>
<g id="_x23_84f9c8ff">
	<path class="st0" d="M119.6,0h10.9c19.7,9,39.3,18.2,58.8,27.6c-4.3-1.1-8.8-1.5-13.3-1.6c-33.7,0.1-67.4,0.1-101,0
		c-4.8,0.1-9.6,0.5-14.3,1.6C80.2,18.2,99.8,8.9,119.6,0z"/>
</g>
<g id="_x23_84f3ccff">
	<path class="st1" d="M60.7,27.6C65.4,26.4,70.2,26,75,26c33.7,0.1,67.3,0.1,101,0c4.5,0.1,8.9,0.6,13.3,1.6
		c11.5,5.1,22.8,10.6,34.1,15.9c0.4,0.8,0.8,1.7,1.2,2.6c-66.4,0-132.9,0-199.3,0c0.4-0.9,0.8-1.7,1.2-2.6
		C37.9,38.2,49.2,32.6,60.7,27.6z"/>
</g>
<g id="_x23_83eed0ff">
	<path class="st2" d="M6.9,54.5c5.5-5.3,12.8-7.8,19.6-11c-0.4,0.8-0.8,1.7-1.2,2.6c66.4,0,132.9,0,199.3,0
		c-0.4-0.9-0.8-1.7-1.2-2.6c6.8,3.3,14.2,5.6,19.6,11c-9.4,4.4-19,8.2-28.7,12c-9.5,0.3-18.9,0.6-28.4,0.4c-40.7,0-81.3,0-122,0
		c-9.5,0.1-18.9-0.1-28.4-0.4C25.9,62.8,16.3,58.9,6.9,54.5z"/>
</g>
<g id="_x23_83e7d5ff">
	<path class="st3" d="M35.6,66.5c9.5,0.3,18.9,0.6,28.4,0.4c40.7,0,81.3,0,122,0c9.5,0.1,18.9-0.1,28.4-0.4
		c-28.5,12.3-57.2,24-85.8,36.1c-3.8,1.9-7.8-0.2-11.4-1.7C90.1,89.3,62.7,78.3,35.6,66.5z"/>
</g>
<g id="_x23_82e1d9ff">
	<path class="st4" d="M0,74.3c26.4,11.4,53.2,22,79.5,33.7c-4.8-1.2-9.6-2.2-14.5-2.2c-21.7,0.3-43.3,0.1-65,0.1V74.3z"/>
</g>
<g id="_x23_82e2d8ff">
	<path class="st5" d="M180.5,103.9c22.9-10.4,46.4-19.5,69.5-29.5V104c-17,0-34,0-51,0C192.8,104.2,186.6,104.5,180.5,103.9z"/>
</g>
<g id="_x23_82dbddff">
	<path class="st6" d="M143.2,119.1c12.5-4.8,24.6-10.7,37.3-15.2c6.2,0.6,12.3,0.3,18.5,0.1c17,0.1,34,0,51,0v22
		c-31.7,0-63.3,0-95,0c-5.1,0.1-10.4-0.7-15.4,0.5c-2,1.7-3,4.3-4.1,6.6c0.1-3.3-0.2-6.6,0.4-9.9C137.7,121,140.7,120.3,143.2,119.1
		z"/>
	<path class="st6" d="M65,105.9c4.9,0,9.8,1,14.5,2.2c10.7,3.9,21.1,8.6,31.6,13c5.1,1.8,3,8.1,3.4,12.2c-1-2.3-2-4.5-3.1-6.8
		c-6.5-0.6-12.9-0.5-19.4-0.4c-30.7,0-61.3,0-92,0v-20C21.7,105.9,43.3,106.2,65,105.9z"/>
</g>
<g id="_x23_81d5e1ff">
	<path class="st7" d="M0,126c30.7,0,61.3,0,92,0c6.5-0.1,12.9-0.2,19.4,0.4c1,2.2,2.1,4.5,3.1,6.8c0.1,5.2,0,10.3,0.1,15.5
		c-2.9-1.6-6.1-2.9-9.5-2.8C70.1,146.1,35,145.9,0,146V126z"/>
</g>
<g id="_x23_81d4e2ff">
	<path class="st8" d="M139.6,126.6c5.1-1.2,10.3-0.5,15.4-0.5c31.7,0,63.3,0,95,0v28c-33.3-0.1-66.7,0-100,0
		c-4.9,0.1-10.3-1.4-14.6,1.6c0.1-7.5,0.1-15,0.1-22.5C136.6,130.8,137.6,128.3,139.6,126.6z"/>
</g>
<g id="_x23_81d0e5ff">
	<path class="st9" d="M0,146c35-0.1,70.1,0.1,105.1-0.1c3.4-0.1,6.6,1.2,9.5,2.8c0,7.4-0.1,14.8,0,22.2c-1.7-1.7-3-4.4-5.6-4.7
		c-5.3-0.7-10.6-0.1-15.9-0.2c-31,0-62,0-93,0V146z"/>
</g>
<g id="_x23_81cde7ff">
	<path class="st10" d="M135.4,155.6c4.3-3,9.7-1.5,14.6-1.6c33.3,0.1,66.7,0,100,0v20.5c-6.8,2.3-14,1.5-21,1.5c-24,0-48,0-72,0
		c-7.2,0-14.6-0.9-21.5,1.6C135.5,170.3,135.5,162.9,135.4,155.6z"/>
</g>
<g id="_x23_80cae9ff">
	<path class="st11" d="M0,166c31,0,62,0,93,0c5.3,0.1,10.6-0.5,15.9,0.2c2.6,0.3,4,3,5.6,4.7c-0.1,5.9,0,11.9,0,17.8
		c-2.9-1.6-6.1-2.9-9.5-2.8c-27.4,0.2-54.7,0-82.1,0.1c-5.9,0.1-11.9-0.7-17.7,0.4c-2.9,0.2-2.5,3.6-2.8,5.7
		c-0.9-1.9-1.8-3.7-2.5-5.7V166z"/>
</g>
<g id="_x23_80c7ebff">
	<path class="st12" d="M229,176c7,0,14.2,0.9,21-1.5v12c-2.3,6-6,11.7-11.6,14.9c0.9-1.6,1.8-3.2,2.7-4.8c-7-1-14-0.8-21-0.7
		c-25-0.1-50.1,0.1-75.1-0.1c-3.4-0.1-6.6,1.2-9.5,2.8c0.1-7,0-14.1,0-21.1c6.9-2.5,14.4-1.6,21.5-1.6C181,176,205,176,229,176z"/>
</g>
<g id="_x23_80c4edff">
	<path class="st13" d="M2.5,192.1c0.3-2.1-0.1-5.5,2.8-5.7c5.8-1.1,11.8-0.3,17.7-0.4c27.3-0.1,54.7,0.1,82.1-0.1
		c3.4-0.1,6.6,1.2,9.5,2.8c0,7.8-0.1,15.6-0.1,23.5c-1.2-2-2.3-4.1-4.1-5.5c-3-1-6.2-0.7-9.3-0.8c-23.9,0.3-47.9-0.1-71.8,0.2
		c1.6,2,3.1,4.1,4.8,6.1c-7.1-3.3-14.3-6.3-21.2-9.9C8.4,200.1,4.7,196.5,2.5,192.1z"/>
</g>
<g id="_x23_80c1efff">
	<path class="st14" d="M135.4,198.7c2.9-1.6,6.1-2.9,9.5-2.8c25,0.2,50.1,0,75.1,0.1c7-0.1,14.1-0.3,21,0.7
		c-0.9,1.6-1.7,3.2-2.7,4.8c-2.7,1.8-5.7,3.1-8.6,4.4c-11,5-21.8,10.4-32.8,15.3c1.7-1.6,3.3-3.4,4.9-5.1c-16-0.2-31.9,0-47.9-0.1
		c-5.5-0.2-11,0-16.4,0.3c-0.7,1.3-1.4,2.6-2,3.9C135.5,213,135.4,205.9,135.4,198.7z"/>
</g>
<g id="_x23_7fbdf2ff">
	<path class="st15" d="M29.1,206.1c24-0.3,47.9,0.1,71.8-0.2c3.1,0,6.4-0.3,9.3,0.8c1.8,1.4,3,3.5,4.1,5.5c0,12.6,0.3,25.1-0.2,37.7
		c-8.6-3-16.6-7.6-24.9-11.3c-18.4-8.9-37.1-17.3-55.4-26.4C32.3,210.2,30.7,208.1,29.1,206.1z"/>
</g>
<g id="_x23_7fbbf4ff">
	<path class="st16" d="M137.6,216.3c5.5-0.3,11-0.5,16.4-0.3c16,0.1,31.9-0.1,47.9,0.1c-1.6,1.7-3.2,3.4-4.9,5.1
		c-11.5,5.9-23.4,11.1-35,16.7c-8.8,3.9-17.1,8.7-26.2,11.9c-0.5-9.9-0.3-19.7-0.2-29.6C136.2,218.9,136.9,217.6,137.6,216.3z"/>
</g>
</svg>
